!!!!SEGMENT: 028-1-BH-024.krn
!!!COM: Chopin, Fryderyk
!!!OTL: Prelude No. 24
!!!OPS: Op. 28
!!!PTL: Vingt-quatre Preludes pour le Piano
!!!PPR: Breitkopf & Härtel
!!!PPP: Leipzig
!!!NIFC-rismID: 1001013153
!!!NIFC-shelfmark: PL-Wbfc 4372/n
!!!OMD: All. apassionato.
!!!system-decoration: {(s1,s2)}
**kern	**kern	**dynam
*part1	*part1	*part1
*staff2	*staff1	*
*clefF4	*clefG2	*
*k[b-]	*k[b-]	*
*d:	*d:	*
*M6/8	*M6/8	*
=1	=1	=1
*^	*	*
*	*	*ped	*
!	!	!	!LO:DY:rj
(>16DDLL\	16ryy	2.r	f
16AA	4AA/	.	.
16F	.	.	.
16DDJ	.	.	.
8AJ)	.	.	.
.	16ryy	.	.
(16DDLL\	16ryy	.	.
16AA	4AA/	.	.
16F	.	.	.
16DDJ	.	.	.
8AJ)	.	.	.
.	16ryy	.	.
=2	=2	=2	=2
(>16DDLL\	16ryy	2.r	.
16AA	4AA/	.	.
16F	.	.	.
16DDJ	.	.	.
8AJ)	.	.	.
.	16ryy	.	.
(>16DDLL\	16ryy	.	.
16AA	4AA/	.	.
16F	.	.	.
16DDJ	.	.	.
8AJ)	.	.	.
.	16ryy	.	.
=3	=3	=3	=3
(>16DDLL\	16ryy	(<4a	.
16AA	4AA/	.	.
16F	.	.	.
16DDJ	.	.	.
8AJ)	.	8f	.
.	16ryy	.	.
(>16DDLL\	16ryy	[<4.d)	.
16AA	4AA/	.	.
16F	.	.	.
16DDJ	.	.	.
8AJ)	.	.	.
.	16ryy	.	.
!!LO:LB:g=original
=4	=4	=4	=4
(>16DDLL\	16ryy	4.d]	.
16AA	4AA/	.	.
16F	.	.	.
16DDJ	.	.	.
8AJ)	.	.	.
.	16ryy	.	.
(>16DDLL\	16ryy	(>8fL	.
16AA	4AA/	.	.
16F	.	8.a	.
16DDJ	.	.	.
8AJ)	.	.	.
*	*	*Xped	*
.	16ryy	16ddJk	.
=5	=5	=5	=5
*	*	*ped	*
(>16DDLL\	16ryy	[>2cc	.
16AA	4AA/	.	.
16F	.	.	.
16DDJ	.	.	.
8AJ)	.	.	.
.	16ryy	.	.
(>16DDLL\	16ryy	.	.
16AA	4AA/	.	.
16F	.	8.ccL]	.
16DDJ	.	.	.
8AJ)	.	.	.
*	*	*Xped	*
.	16ryy	16aJk	.
*v	*v	*	*
=6	=6	=6
*	*ped	*
(>16DDLL\	4.a)	.
16AA	.	.
16F	.	.
16DDJ	.	.
8AJ)	.	.
.	.	.
(>16DDLL\	4r	.
16AA	.	.
16F	.	.
16DDJ	.	.
8AJ)	16r	.
.	(>16a	.
=7	=7	=7
(>16DDLL\	4a	.
16AA	.	.
16F	.	.
16DDJ	.	.
8AJ)	16r	.
.	16f	.
.	(<16qqdL/	.
.	16qqe	.
.	16qqfJ	.
(>16DDLL\	8eL)	.
16AA	.	.
16F	8dJ)	.
16DDJ	.	.
8AJ)	8r	.
.	.	.
!!LO:LB:g=original
=8	=8	=8
*^	*	*
(>16DDLL\	16ryy	4r	.
16AA	4AA/	.	.
16F	.	.	.
16DDJ	.	.	.
8AJ)	.	8f	<
.	16ryy	.	.
(>16DDLL\	16ryy	(>8aL	.
16AA	4AA/	.	.
16F	.	8.dd	.
16DDJ	.	.	.
8AJ)	.	.	.
.	16ryy	16ffJk	[
=9	=9	=9	=9
(>16DDLL\	16ryy	[>2ee	.
16AA	4AA/	.	.
16F	.	.	.
16DDJ	.	.	.
8AJ)	.	.	.
.	16ryy	.	.
(>16DDLL\	16ryy	.	.
16AA	4AA/	.	.
16F	.	8.eeL]	.
16DDJ	.	.	.
8AJ)	.	.	.
.	16ryy	16ddJk	.
*v	*v	*	*
=10	=10	=10
(>16DDLL\	4a	.
16AA	.	.
16F	.	.
16DDJ	.	.
*	*Xped	*
.	16qqaLL/	<
.	16qqbnJJ	.
8AJ)	2bnytt>	.
*	*ped	*
(>16DDLL\	.	.
16GG	.	.
16F	.	.
16DDJ	.	.
*	*Xped	*
8GJ)	.	.
.	16qqa/LL	.
.	16qqb/JJ	.
=11	=11	=11
*	*ped	*
(>16CCLL\	4.cc	.
16AA	.	[
16F	.	.
16CCJ	.	.
8AJ)	.	.
(>16CCLL\	4b-X	.
16AA	.	.
16F	.	.
16CCJ	.	.
*	*Xped	*
8AJ)	8a	.
!!LO:LB:g=original
=12	=12	=12
*	*ped	*
(>16CCLL\	4.gTT>	.
16GG	.	.
16F	.	.
16CCJ	.	.
8GJ)	.	.
.	16qqfLL/	.
.	16qqgJJ	.
(>16CCLL\	4a	.
16GG	.	.
16F	.	.
16CCJ	.	.
8AJ)	16r	.
*	*Xped	*
.	16f	.
=13	=13	=13
*	*ped	*
(>16CCLL\	2.c)	.
16BB-	.	.
16F	.	.
16CCJ	.	.
8GJ)	.	.
(>16CCLL\	.	.
16BB-	.	.
16F	.	.
16CCJ	.	.
*	*Xped	*
8GJ)	.	.
=14	=14	=14
*	*Xtuplet	*
*	*ped	*
*	*rscale:1	*
!	!LO:TX:a:t=P:problem:grupa niemiarowa z jedną belką	!
(>16CCLL\	(>112%3cL\	.
*	*cue	*
.	112%3d	<
.	112%3c	.
16BB-	.	.
.	112%3Bn	.
.	112%3c	.
16E	.	.
.	112%3d	.
.	112%3e	.
16CCJ	112%3f	.
.	112%3g	.
.	112%3a	.
8GJ)	.	.
.	112%3b-X	.
.	112%3cc	.
.	112%3dd	.
.	112%3ee	.
(>16CCLL\	112%3ff	.
.	112%3gg	.
.	112%3aa	.
16BB-	.	.
.	112%3bb-	.
.	112%3ccc	.
16E	.	.
.	112%3ddd	.
*	*8va	*
.	112%3eee	.
16CCJ	112%3fff	.
.	112%3ggg	.
.	112%3aaa	.
8GJ)	.	.
.	112%3bbb-	.
.	112%3cccc	.
.	112%3dddd	.
*	*Xped	*
.	112%3eeeeJ	[[
*	*rscale:1	*
*	*Xcue	*
!!LO:LB:g=original
=15	=15	=15
*	*ped	*
(>16FFLL\	4ffff)	.
*	*X8va	*
16C	.	.
!	!LO:TX:a:B:t=loco	!
16A	.	.
16FFJ	.	.
8cJ)	8r	.
(>16FFLL\	4r	.
16C	.	.
16A	.	.
16FFJ	.	.
*	*Xped	*
8cJ)	8r	.
=16	=16	=16
*	*ped	*
(>16FFLL\	(>4.bnt>	.
16D#X	.	.
16A	.	.
16FFJ	.	.
8BnJ)	.	.
.	16qqaL/	.
.	16qqbJ	.
(>16FFLL\	4cc	.
16BBn	.	.
16A	.	.
16FFJ	.	.
8BJ)	16r	.
*	*Xped	*
.	16a	.
=17	=17	=17
*	*ped	*
(>16EELL\	4e)	.
16C	.	.
16A	.	.
16EEJ	.	.
!	!LO:TX:b:t=P:diminuendolike accent:problem	!
8cJ)	(>[>8fff^<	.
*	*cue	*
*	*rscale:1	*
!	!LO:TX:a:t=P:grupa niemiarowa z jedną belką:problem	!
(>16EELL\	104%3fffL]\	.
.	104%3eee	.
.	104%3ccc	.
16C	.	.
.	104%3aa	.
.	104%3ff	.
16A	.	.
.	104%3ee	.
.	104%3cc	.
16EEJ	.	.
.	104%3a	.
.	104%3f	.
8cJ)	.	.
.	104%3e	.
*	*clefF4	*
.	104%3c	.
.	104%3A	.
.	104%3FJ	.
*	*Xped	*
*	*rscale:1	*
*	*Xcue	*
!!LO:PB:g=original
=18	=18	=18
*	*ped	*
(>16EELL\	4E)	.
16D	.	.
16G#X	.	.
16EEJ	.	.
*	*rscale:4	*
8BnJ)	(>56ELL\	.
*	*cue	*
.	56F	.
.	56E	.
.	56D#X	.
.	56E	.
.	56F#X	<
.	56G#X	.
(>16EELL\	56A	.
.	56Bn	.
.	56c	.
*	*clefG2	*
.	56d	.
16D	.	.
.	56e	.
.	56f#X	.
.	56g#X	.
16G#	56a	.
.	56bn	.
.	56cc	.
.	56dd	.
16EEJ	.	.
.	56ee	.
.	56ff#	.
.	56gg#	.
8BJ)	56aa	.
.	56bbn	.
.	56ccc	.
.	56ddd	.
.	56eee	.
*	*Xped	*
.	56fff#	.
.	56ggg#JJ	[[
*	*rscale:1	*
*	*Xcue	*
*	*tuplet	*
=19	=19	=19
*	*ped	*
(>16AAALL\	4aaa)	.
!	!LO:TX:b:Bi:t=sempre forte.	!
16EE	.	.
16C	.	.
16AAAJ	.	.
8EJ)	8r	.
(>16AAALL\	4r	.
16EE	.	.
16C	.	.
16AAAJ	.	.
8EJ)	8r	.
=20	=20	=20
(>16AAALL\	2.r	.
16EE	.	.
16C	.	.
16AAAJ	.	.
8EJ)	.	.
(>16AAALL\	.	.
16EE	.	.
16C	.	.
16AAAJ	.	.
8EJ)	.	.
!!LO:LB:g=original
=21	=21	=21
(>16AAALL\	(>4e	.
16EE	.	.
16C	.	.
16AAAJ	.	.
8EJ)	8c	.
(>16AAALL\	[<4.A	.
16EE	.	.
16C	.	.
16AAAJ	.	.
8EJ)	.	.
=22	=22	=22
(>16AAALL\	4.A]	.
16EE	.	.
16C	.	.
16AAAJ	.	.
8EJ)	.	.
(>16AAALL\	8cL	.
16EE	.	.
16C	8.e	.
16AAAJ	.	.
8EJ)	.	.
*	*Xped	*
.	16aJk	.
=23	=23	=23
*	*ped	*
(>16AAALL\	[<2g	.
16EE	.	.
16C	.	.
16AAAJ	.	.
8EJ)	.	.
(>16AAALL\	.	.
16EE	.	.
16C	8.gL]	.
16AAAJ	.	.
8EJ)	.	.
*	*Xped	*
.	16fJk	.
=24	=24	=24
*	*ped	*
(>16AAALL\	4.e)	.
16EE	.	.
16C	.	.
16AAAJ	.	.
8EJ)	.	.
(>16AAALL\	4r	.
16EE	.	.
16C	.	.
16AAAJ	.	.
8EJ)	16r	.
.	(<16e	.
!!LO:LB:g=original
=25	=25	=25
(>16AAALL\	4e	.
16EE	.	.
16C	.	.
16AAAJ	.	.
8EJ)	16r	.
.	16c	.
.	16qqA/L	.
.	16qqBn	.
.	16qqcJ	.
(>16AAALL\	8BnyL	.
16EE	.	.
16C	8AJ)	.
16AAAJ	.	.
8EJ)	8r	.
=26	=26	=26
(<16AAALL	4r	.
16EE	.	.
16C	.	.
16AAAJ	.	.
8EJ)	(>8c	.
(<16AAALL	8eL	.
16EE	.	.
16C	8.a	.
16AAAJ	.	.
8CJ)	.	.
.	16ccJk	.
=27	=27	=27
(<16AAALL	[>2bn	.
16EE	.	.
16C	.	.
16AAAJ	.	.
8EJ)	.	.
(<16AAALL	.	.
16EE	.	.
16C	8.bL]	.
16AAAJ	.	.
8EJ)	.	.
.	16aJk)	.
!!LO:LB:g=original
=28	=28	=28
(>16AAALL\	(>4e	.
16EE	.	.
16C	.	.
16AAAJ	.	.
.	16qqeLL/	.
.	16qqf#XJJ	.
8EJ)	2f#ytt>	<
(>16AAALL\	.	.
16DD	.	.
16C	.	.
16AAAJ	.	.
8DJ)	.	.
.	16qqeLL/	.
.	16qqf#JJ	.
=29	=29	=29
(>16GGGLL\	4.g	.
16EE	.	.
16C	.	.
16GGGJ	.	.
8EJ)	.	.
(>16GGGLL\	4fn	.
16EE	.	[
16C	.	.
16GGGJ	.	.
*	*Xped	*
8EJ)	8e	.
=30	=30	=30
*	*ped	*
(>16GGGLL\	4.dT>	.
16DD	.	.
16C	.	.
16GGGJ	.	.
8DJ)	.	.
.	16qqcLL/	.
.	16qqdJJ	.
(>16GGGLL\	4e	.
16DD	.	.
16C	.	.
16GGGJ	.	.
8DJ)	16r	.
*	*Xped	*
.	16c	.
!!LO:LB:g=original
=31	=31	=31
*	*ped	*
(>16GGGLL\	2.G<)	.
16FF	.	.
16C	.	.
16GGGJ	.	.
8DJ)	.	.
(>16GGGLL	.	.
16FF	.	.
16C	.	.
16GGGJ	.	.
*	*Xped	*
8DJ)	.	.
=32	=32	=32
*	*Xtuplet	*
*ped	*	*
*	*rscale:1	*
*	*cue	*
!	!LO:TX:a:t=P:problem:grupa niemiarowa z jedną belką	!
(>16GGGLL\	(<112%3G<L\	.
.	112%3A<	.
.	112%3G<	.
16FF	.	.
.	112%3F#X<	.
.	112%3G<	.
16BBn	.	.
.	112%3A<	.
.	112%3Bn<	.
16GGGJ	112%3c	.
.	112%3d	.
.	112%3e	.
8DJ)	.	.
.	112%3fn	.
.	112%3g	.
.	112%3a	.
.	112%3bn	.
(>16GGGLL\	112%3cc	.
.	112%3dd	<
.	112%3ee	.
16FF	.	.
.	112%3ff	.
*	*8va	*
.	112%3gg	.
16BBny	.	.
.	112%3aa	.
.	112%3bbn	.
16GGGJ	112%3ccc	.
.	112%3ddd	.
.	112%3eee	.
8DJ)	.	.
.	112%3fff	.
.	112%3ggg	.
.	112%3aaa	.
*Xped	*	*
.	112%3bbbnJ)	[[
*	*Xcue	*
*	*rscale:1	*
=33	=33	=33
*	*ped	*
(>16CCLL\	4cccc	.
*	*X8va	*
!	!LO:TX:a:B:t=loco	!
16GG	.	.
16E	.	.
16CCJ	.	.
8GJ)	8r	.
(>16CCLL\	4r	.
16GG	.	.
16E	.	.
16CCJ	.	.
*	*Xped	*
8GJ)	8r	.
!!LO:PB:g=original
=34	=34	=34
*	*ped	*
(>16CCLL\	(>4.f#Xt>	.
16FF#X	.	.
16E	.	.
16CCJ	.	.
8F#J)	.	.
.	16qqeLL/	.
.	16qqf#JJ	.
(>16CCLL\	4g	.
16FF#	.	.
16E	.	.
16CCJ	.	.
8F#J)	16r	.
*	*Xped	*
.	16e	.
=35	=35	=35
*	*ped	*
(>16BBBnLL\	4Bn)	.
16GG	.	.
16E	.	.
16BBBJ	.	.
8GJ)	[>8ccc	.
*	*rscale:1	*
*	*cue	*
!	!LO:TX:a:t=P:problem:grupa niemiarowa z jedną belką	!
(>16BBBLL\	(>104%3cccL]\	.
.	104%3bbn	.
.	104%3gg	.
16GG	.	.
.	104%3ee	.
.	104%3cc	.
16E	.	.
.	104%3bnX	.
.	104%3g	.
16BBBJ	.	.
.	104%3e	.
*	*clefF4	*
.	104%3c	.
8GJ)	.	.
.	104%3Bn	.
.	104%3G	.
.	104%3E	.
*	*Xped	*
.	104%3CJ)	.
*	*Xcue	*
*	*rscale:1	*
=36	=36	=36
*	*ped	*
(>16BBBnLL\	[<4.BBn^>	.
16AA	.	.
16D#X	.	.
16BBBJ	.	.
8F#J)	.	.
*	*rscale:1	*
*	*cue	*
!	!LO:TX:a:t=P:problem:grupa niemiarowa z jedną belką	!
(>16BBBnyLL\	(>152%3BBLL]\	.
.	152%3C	<
.	152%3D#X	.
.	152%3F#X	.
16AA	.	.
.	152%3A	.
.	152%3c	.
*	*clefG2	*
.	152%3d#X	.
16D#	.	.
.	152%3f#X	.
.	152%3a	.
.	152%3cc	.
16BBBJ	.	.
.	152%3dd#	.
.	152%3ff#	.
.	152%3aa	.
8F#J)	.	.
.	152%3ccc	.
*	*8va	*
.	152%3ddd#X	.
.	152%3fff#X	.
.	152%3aaa	.
.	152%3cccc	.
*	*Xped	*
.	152%3cccc#JJ	[[
*	*Xcue	*
*	*rscale:1	*
*	*tuplet	*
!!LO:LB:g=original
=37	=37	=37
*	*ped	*
(>16EELL\	4eeee)	.
*	*X8va	*
!	!LO:TX:a:B:t=loco.	!
16BBn	.	.
16G	.	.
16EEJ	.	.
8BnJ)	8r	.
(>16EELL\	(>[<4.g^>	.
16BB	.	.
16G	.	.
16EEJ	.	.
*	*Xped	*
8BJ)	.	.
=38	=38	=38
*	*ped	*
(>16EE-X^<LL\	4g]	.
16BBn	.	.
16G	.	.
16EE-J	.	.
*	*Xped	*
8BnJ)	8g	.
.	16qqgLL/	.
.	16qqb-XJJ	.
*	*ped	*
(>16DD^<LL\	4a-X)	.
16BB	.	.
16F	.	.
16DDJ	.	.
8GJ)	16r	.
*	*Xped	*
.	(>16g	.
=39	=39	=39
*	*ped	*
(>16CCLL\	4g	.
16GG	.	.
16E-X	.	.
16CCJ	.	.
8GJ)	8e-X	.
(>16CCLL\	[<4.c	.
16GG	.	.
16E-	.	.
16CCJ	.	.
8GJ)	.	.
=40	=40	=40
(>16CCLL\	4.c])	<
16GG	.	.
16E-X	.	.
16CCJ	.	.
8GJ)	.	.
(>16CCLL\	(>8e-XL	.
16GG	.	.
16E-	8.g	.
16CCJ	.	.
8GJ)	.	.
*	*Xped	*
.	16ccJk	[
!!LO:LB:g=original
=41	=41	=41
*	*ped	*
(>16CCLL\	4b-/	>
16AA-X	.	.
16E-X	.	.
16CCJ	.	.
8A-XJ)	8a-X	.
(>16CCLL\	[<4.e-X)	.
16AA-	.	]
16E-	.	.
16CCJ	.	.
*	*Xped	*
8A-J)	.	.
=42	=42	=42
*	*^	*
*	*ped	*	*
(>16CCLL\	(>8e-]	4.ryy	.
16AA-X	.	.	.
16G-X	8.a-XL	.	.
16CCJ	.	.	.
8A-XJ)	.	.	.
.	16a-Jk	.	.
!	!	!LO:TX:b:Bi:t=cres _:problem:dynamics with extention lines	!
!	!	!	!LO:HP:b:Bi:t=cres:ext=cd
(>16CCLL\	4.a-	16a-LL	<
!	!LO:TX:a:Bi:t=con forza.	!	!
16AA-	.	16f	.
16G-	.	16g-X	.
16CCJ	.	16e-X	.
8A-J)	.	16g-	.
*	*	*Xped	*
.	.	16A-XJJ	.
*	*v	*v	*
=43	=43	=43
*	*ped	*
(>16DD-XLL\	4a-X	.
16AA-X	.	.
16F	.	.
16DD-J	.	.
8A-XJ)	8f	.
(>16DD-LL\	[<4.d-X	.
16AA-	.	.
16F	.	.
16DD-J	.	.
8A-J)	.	.
=44	=44	=44
(>16DD-XLL\	4d-X]	[
16AA-X	.	<
16F	.	.
16DD-J	.	.
8A-XJ)	8f	.
(>16DD-LL\	8a-XL	.
16AA-	.	.
16F	8.dd	.
16DD-J	.	.
8A-J)	.	.
.	16ffJk	.
!!LO:LB:g=original
=45	=45	=45
(>16DD-XLL\	4ee-X	.
16AA-X	.	.
16F	.	.
16DD-J	.	.
8A-XJ)	8dd-X	[
(>16DD-LL\	4.a-X)	.
16AA-	.	.
16F	.	.
16DD-J	.	.
8A-J)	.	.
=46	=46	=46
(>16DD-XLL\	4r	p
16AA-X	.	.
16F	.	.
16DD-J	.	.
8A-XJ)	(>8f	.
(>16DD-LL\	8a-XL	.
16AA-	.	.
16F	8.dd-X	.
16DD-J	.	.
*	*Xped	*
8A-J)	.	.
.	16ffJk	.
=47	=47	=47
*	*ped	*
(>16DD-XLL\	4ee-X	.
16AAn	.	.
16F	.	.
16DD-J	.	.
8AnJ)	8dd-X	.
(>16DD-LL\	[<4.an^<)	.
16AA	.	.
16F	.	.
16DD-J	.	.
8AJ)	.	.
=48	=48	=48
(>16DD-XLL\	8anXL]	.
16AAn	.	.
16F	(<8a	.
16DD-J	.	.
8AnJ)	8aJ	.
(>16DD-LL\	8aL	.
16AA	.	.
16F	8f	.
16DD-J	.	.
8AJ)	16r	.
.	16gJk	.
!!LO:LB:g=original
=49	=49	=49
(<16DD-XLL	[<2.a^<)	.
16AAn	.	.
16F	.	.
16DD-J	.	.
8AnJ)	.	.
(<16DD-LL	.	.
16AA	.	.
16F	.	.
16DD-J	.	.
8AJ)	.	.
=50	=50	=50
(<16CC#XLL	8aL]	<
16AA	.	.
16F	(>8aa 8a	.
16CC#J	.	.
8AJ)	8aaJ 8a	.
16CC#LL	8aaL 8a	.
16AA	.	.
.	8qccc 8qcc/	.
16F	8.bb- 8.b-	.
16CC#J	.	.
*	*Xped	*
8AJ	.	.
.	16aaJk) 16a	[
=51	=51	=51
*	*ped	*
!	!	!LO:DY:rj
(<16DDLL	(>4aa 4a	f
16AA	.	.
16F	.	.
16DDJ	.	.
8AJ)	8ff) 8f	.
(<16DDLL	[>4.dd [<4.d	.
16AA	.	.
16F	.	.
16DDJ	.	.
8AJ)	.	.
=52	=52	=52
(<16DDLL	4dd] 4d]	.
16AA	.	.
16F	.	.
16DDJ	.	.
8AJ)	(>8ff 8f	.
(<16DDLL	8aaL 8a	<
16AA	.	.
16F	8.ddd 8.dd	.
16DDJ	.	.
*	*Xped	*
8AJ)	.	.
.	16fffJk 16ff	.
!!LO:LB:g=original
=53	=53	=53
*	*ped	*
(>16BBB-LL\	4eee 4ee	.
16GG	.	.
16D	.	.
16BBB-J	.	.
8EJ)	8ddd 8dd)	.
(>16BBB-LL\	(>8ggL 8g	.
16GG	.	.
16D	8.ddd 8.dd	.
16BBB-J	.	.
*	*Xped	*
8EJ)	.	.
.	16fffJk 16ff	.
=54	=54	=54
*	*ped	*
(>16BBB-LL\	4eee 4ee	.
16GG#X	.	.
16D	.	.
16BBB-J	.	.
8FJ)	8ddd 8dd)	.
(>16BBB-LL\	(>8gg#XL 8g#X	.
16GG#	.	.
16D	8ddd 8dd	.
16BBB-J	.	.
8FJ)	8fffJ 8ff)	.
=55	=55	=55
*	*Xtuplet	*
*	*8va	*
(>16BBB-LL\	(>24ffffLL 24dddd	ff
.	24eeee 24cccc#X	.
16GG#X	.	.
.	24eeee-XJJ 24ccccn	.
16D	24ddddLL 24bbbn	.
.	24dddd-X 24bbb-X	.
16BBB-J	.	.
.	24ccccnJJ 24aaa	.
8FJ)	24bbbnLL 24ggg#X	.
.	24bbb-X 24gggn	.
.	24aaaJJ 24fff#X	.
(>16BBB-LL\	24aaa-XLL 24fffn	.
.	24ggg 24eeen	.
16GG#	.	.
.	24fff#XJJ 24ddd#X	.
16D	24fffnLL 24dddn	.
.	24eee 24ccc#X	.
16BBB-J	.	.
.	24eee-XJJ 24cccn	.
8FJ)	24dddnLL 24bbn	.
.	24ddd-X 24bb-X	.
.	24cccJJ 24aan	.
*	*X8va	*
!!LO:PB:g=original
=56	=56	=56
!	!LO:TX:a:B:t=loco	!
(<16BBB-LL	24bbnLL 24gg#X	.
.	24bb-X 24ggn	.
16GG#X	.	.
.	24aaJJ 24ff#X	.
16D	24aa-XLL 24ffn	.
.	24gg 24ee	.
16BBB-J	.	.
.	24ff#XJJ 24dd#X	.
8FJ)	24ffnLL 24ddn	.
.	24ee 24cc#X	.
.	24ee-XJJ 24ccn	.
(<16BBB-LL	24ddLL 24bn	.
.	24cc 24a#X	.
16GG#X	.	.
.	24ccnJJ 24an	.
16D	24bLL 24g#X	.
.	24b-X 24gn	.
16BBB-J	.	.
.	24aJJ 24f#X	.
8FJ)	24g#XLL 24fn	.
.	24g# 24e	.
*	*Xped	*
.	24g#JJ) 24d	.
*	*tuplet	*
=57	=57	=57
*	*ped	*
(>16AAALL	(>4A<	.
16FF	.	.
16D	.	.
16AAAJ	.	.
8FJ)	16r	.
.	16a	.
!	!LO:TX:t=P:diminuendolike accent:problem	!
(>16AAALL\	[<4.a^<)	.
16FF	.	.
16D	.	.
16AAAJ	.	.
8FJ)	.	.
!!LO:LB:g=original
=58	=58	=58
(<16AAALL	(>8aL]	.
16FF	.	.
16D	8.g	.
16AAAJ	.	.
8FJ)	.	.
.	16fJk	.
!	!LO:TX:a:t=P:note-head-side tuplet number:problem	!
(<16AAALL	56%3eLL	.
.	56%3f	.
16FF	.	.
.	56%3e	.
16D	.	.
.	56%3d	.
16AAAJ	.	.
.	56%3e	.
8FJ)	.	.
.	56%3f	.
.	56%3dJJ)	.
=59	=59	=59
(<16AAALL	8a 8A	.
16FF	.	.
16D	8r	.
16AAAJ	.	.
!	!LO:TX:b:Bi:t=cres _:problem:dynamics with extention lines	!
!	!	!LO:HP:b:Bi:t=cres:ext=cd
8FJ)	8aa 8a	<
*	*8va	*
!	!LO:TX:t=P:diminuendolike accent:problem	!
(<16AAALL	[>4.aaa^< [<4.aa	.
16FF	.	.
16D	.	.
16AAAJ	.	.
8FJ)	.	.
=60	=60	=60
(<16AAALL	8aaaL] 8aa]	.
16FF	.	.
16D	8.ggg 8.gg	.
16AAAJ	.	.
8FJ)	.	.
.	16fffJk 16ff	.
*	*Xtuplet	*
(<16AAALL	56%3eeeLL 56%3ee\	.
.	56%3fff 56%3ff	.
16FF	.	.
.	56%3eee 56%3ee	.
16D	.	.
.	56%3ddd 56%3dd	.
16AAAJ	.	.
.	56%3eee 56%3ee	.
8FJ)	.	.
.	56%3fff 56%3ff	.
.	112%3r	.
*	*Xped	*
.	112%3dddJJk 112%3dd	[
!!LO:LB:g=original
=61	=61	=61
*ped	*	*
!	!LO:TX:b:Bi:t=stretto	!LO:DY:rj
(<16AAALL	8bbb-L 8bb-\	fff
16GG	.	.
16D	8eee 8ee	.
16AAAJ	.	.
8EJ)	8fffJ 8ff	.
(<16AAALL	8aaaL 8aa\	.
16GG	.	.
16D	8ggg 8gg	.
16AAAJ	.	.
*Xped	*	*
8EJ)	8bb-J 8b-	.
*	*X8va	*
!!LO:LB:g=original
=62	=62	=62
*	*ped	*
!	!LO:TX:a:B:t=loco	!
(<16AAALL	8dddL 8dd	.
16GG	.	.
16D	8gg 8g	.
16AAAJ	.	.
*	*Xped	*
8EJ)	8aaJ 8a	.
*	*ped	*
(<16AAALL	8cccL 8cc	.
16GG	.	.
16D	8bb- 8b-	.
16AAAJ	.	.
*	*Xped	*
8EJ)	16r	.
.	16eeJk 16e	.
=63	=63	=63
*	*ped	*
(<16AAALL	8ggL 8g	.
16GG	.	.
16D	8b- 8B-	.
16AAAJ	.	.
*	*Xped	*
8EJ)	8ccJ 8c	.
*	*ped	*
(<16AAALL	8eeL 8e	.
16GG	.	.
16D	8dd 8d	.
16AAAJ	.	.
*	*Xped	*
8EJ)	8gJ 8G	.
=64	=64	=64
*ped	*	*
(<16AAALL	4.b- 4.B-	.
16GG	.	.
16D	.	.
16AAAJ	.	.
*Xped	*	*
8EJ)	.	.
*ped	*	*
(>16AAALL\	4.c#X 4.C#X<	.
16GG	.	.
16AA	.	.
16AAAJ	.	.
*Xped	*	*
8EJ)	.	.
!!LO:LB:g=original
=65	=65	=65
*ped	*	*
(>16DDLL	4d 4D<	.
16AA	.	.
16F	.	.
16DDJ	.	.
8AJ)	8r	.
(>16DDLL	4r	.
16AA	.	.
16F	.	.
16DDJ	.	.
*Xped	*	*
!	!LO:TX:b:B:i:t=sempre	!
8AJ)	8r	.
=66	=66	=66
*	*Xtuplet	*
*	*8va	*
*ped	*	*
(<16DDLL	(>[>4ffff 4fff	ff >
16GG#X	.	.
16F	.	.
16DDJ	.	.
*	*rscale:4	*
*	*cue	*
8G#XJ)	44ffffL]\	.
.	44eeee	.
.	44dddd	.
.	44bbbn	.
.	44gggn	.
.	44fff	.
(<16DDLL	.	.
.	44eee	.
.	44ddd	.
.	44bbn	.
*	*X8va	*
16GG#	.	.
!	!LO:TX:a:t=loco	!
.	44ggn	]
.	44ff	.
16F	44ee	.
.	44dd	.
.	44bny	.
16DDJ	.	.
.	44gn	.
.	44f	.
.	44e	.
8G#J)	.	.
.	44d	.
*	*clefF4	*
.	44Bn	.
.	44Gn	.
.	44F	.
*Xped	*	*
.	44EJ	.
*	*Xcue	*
*	*rscale:1	*
*	*tuplet	*
=67	=67	=67
(<16DDLL	2D^<)	.
16AA	.	.
16F	.	.
16DDJ	.	.
8AJ)	.	.
(<16DDLL	.	.
16AA	.	.
16F	4r	.
16DDJ	.	.
8AJ)	.	.
*	*clefG2	*
!!LO:LB:g=original
=68	=68	=68
*	*^	*
*ped	*	*	*
(<16DDLL	(>4.bn 4.Bn	2.f	>
16GG#X	.	.	.
16F	.	.	.
16DDJ	.	.	.
*Xped	*	*	*
8G#XJ)	.	.	]
*ped	*	*	*
(<16DDLL	4.b-X) 4.B-X	.	.
16GG#	.	.	.
16F	.	.	.
16DDJ	.	.	.
*Xped	*	*	*
8G#J)	.	.	.
*	*v	*v	*
=69	=69	=69
*ped	*	*
(<16DDLL	4a 4f 4A)	.
16AA	.	.
16F	.	.
16DDJ	.	.
*Xped	*	*
8AJ)	8r	.
*ped	*	*
(<16DDLL	4r	.
16AA	.	.
16F	.	.
16DDJ	.	.
*Xped	*	*
8AJ)	8r	.
=70	=70	=70
*	*Xtuplet	*
*	*8va	*
*ped	*	*
(<16DDLL	(>[>4ffff 4fff	.
16GG#X	.	.
16F	.	.
16DDJ	.	>
*Xped	*	*
*	*rscale:4	*
*	*cue	*
8G#XJ)	44ffffL]\	.
.	44eeee	.
.	44dddd	.
.	44bbbn	.
.	44gggn	.
.	44fff	.
*ped	*	*
(<16DDLL	.	.
.	44eee	.
.	44ddd	.
.	44bbn	.
16GG#	.	.
.	44ggn	.
.	44ff	.
*	*X8va	*
!	!LO:TX:a:t=loco	!
16F	44ee	.
.	44dd	.
.	44bny	.
16DDJ	.	.
.	44gn	]
.	44f	.
.	44e	.
8G#J)	.	.
.	44d	.
*	*clefF4	*
.	44Bn	.
*Xped	*	*
.	44Gn	.
.	44F	.
.	44EJ	.
*	*Xcue	*
*	*rscale:1	*
*	*tuplet	*
=71	=71	=71
*ped	*	*
(<16DDLL	2D^<)	.
16AA	.	.
16F	.	.
16DDJ	.	.
*Xped	*	*
8AJ)	.	.
*ped	*	*
(<16DDLL	.	.
16AA	.	.
16F	4r	.
16DDJ	.	.
*Xped	*	*
8AJ)	.	.
*	*clefG2	*
!!LO:LB:g=original
=72	=72	=72
*ped	*	*
!	!LO:TX:b:Bi:t=stretto.	!
!	!LO:TX:a:t=P:stem-side tuplet number:problem	!
(<16DDLL	(>40%3bnL 40%3f 40%3Bn	.
16GG#X	.	.
.	40%3b 40%3f 40%3B	.
16F	.	.
.	40%3b 40%3f 40%3B	<
16DDJ	.	.
*Xped	*	*
.	40%3b 40%3f 40%3B	.
8GJ)	.	.
.	40%3bJ 40%3f 40%3B	.
*ped	*	*
(<16DDLL/	40%3bL 40%3f 40%3B	.
16GG#	.	.
.	40%3b-X 40%3f 40%3B-X	.
16F	.	.
.	40%3b- 40%3f 40%3B-	.
16DDJ	.	.
*Xped	*	*
.	40%3b- 40%3f 40%3B-	.
8GJ)	.	.
.	40%3b-J 40%3f 40%3B-)	[
=73	=73	=73
*ped	*	*
!	!LO:TX:t=P:arpegio w dwóch kawałkach:problem	!
4F: 4AA: 4DD:	4a: 4f: 4A<:	.
8r	8r	.
*clefG2	*	*
*	*8va	*
4.ff 4.dd 4.a 4.f	N(>4.dddd 4.ddd	.
*clefF4	*	*
=74	=74	=74
*	*rscale:4	*
*	*cue	*
!	!LO:TX:t=P:mixed beam:problem	!
2.r	32bbb-L\	fff
.	32aaa\	.
.	32fff\	.
.	32ddd\	.
.	32bb-\	.
.	32aa\	.
*	*X8va	*
!	!LO:TX:a:B:t=loco	!
.	32ff\	.
.	32dd\	.
.	32b-\	.
.	32a\	.
.	32f\	.
.	32d\	.
.	32B-</	.
.	32A</	.
.	32F</	.
.	32D</	.
.	32BB-</	.
.	32AA</	.
.	32FF</	.
.	32DD</	.
.	32BBB-</	.
.	32AAA</	.
.	32FFF</	.
.	32EEE<J/	.
*	*Xcue	*
*	*rscale:1	*
=75	=75	=75
2DDD^>	2.r	.
4r	.	.
=76	=76	=76
!	!LO:TX:t=P:cross-staff slur:problem	!
2DDD^>N)	2.r	.
4r	.	.
=77	=77	=77
!	!LO:TX:b:B:t=Fine.	!
2DDD^>	2.r	.
4r;>	.	.
==	==	==
*-	*-	*-
!!title: @{OTL}; @{OPS} @{ONM} publisher: @{PPR}
!!!RDF**kern: > = above
!!!RDF**kern: < = below
!!!RDF**kern: N = linked
!!!RDF**dynam: < = "cres", fontstyle= "bold-italic"
!!!ENC: Leszek Kubiak
!!!END: 2019-06-14
!!!EED: Wojciech Jakubiak-Danek
!!!EST: 2019-09-28
!!!EED2: Wojciech Jakubiak-Danek
!!!EST2: 2020-05-17
!!!rism-genre: Prelude
!!!rism-key: D minor
!!!rism-opus: op.  28, no. 24
!!!rism-title: Prelude in D minor op.  28, no. 24
!!!rism-permalink: https://opac.rism.info/search?id=1001013153&View=rism
!!!rism-773a-OPR: 1001013083
!!!rism-parent-permalink: https://opac.rism.info/search?id=1001013083&View=rism